pictures/ast_black.svg

<svg width="1200" height="776" viewBox="0.00 0.00 900.43 582.44" xmlns="http://www.w3.org/2000/svg"><g class="graph" transform="translate(4 578.441)"><title>AST</title><g class="node"><title>def</title><ellipse fill="#cb7832" stroke="#000" cx="281.48" cy="-556.441" rx="76.887" ry="18"/><text text-anchor="middle" x="281.48" y="-552.741" font-family="Times,serif" font-size="14" fill="#fff">function definition</text></g><g class="node"><title>function_name</title><ellipse fill="#bababa" stroke="#000" cx="107.48" cy="-475.571" rx="107.46" ry="26.741"/><text text-anchor="middle" x="107.48" y="-479.371" font-family="Times,serif" font-size="14" fill="#fff">identifier</text><text text-anchor="middle" x="107.48" y="-464.371" font-family="Times,serif" font-size="14" fill="#fff">value: nearest_neighbors</text></g><g class="edge"><title>def--function_name</title><path fill="none" stroke="#000" d="M247.931-540.234l-90.196 40.884"/></g><g class="node"><title>arguments</title><ellipse fill="none" stroke="#000" cx="281.48" cy="-475.571" rx="48.192" ry="18"/><text text-anchor="middle" x="281.48" y="-471.871" font-family="Times,serif" font-size="14">arguments</text></g><g class="edge"><title>def--arguments</title><path fill="none" stroke="#000" d="M281.48-538.327v44.676"/></g><g class="node"><title>body</title><ellipse fill="none" stroke="#000" cx="551.48" cy="-475.571" rx="28.695" ry="18"/><text text-anchor="middle" x="551.48" y="-471.871" font-family="Times,serif" font-size="14">body</text></g><g class="edge"><title>def--body</title><path fill="none" stroke="#000" d="M327.588-541.972l198.334 57.935"/></g><g class="node"><title>arg1</title><ellipse fill="#bababa" stroke="#000" cx="73.48" cy="-385.831" rx="51.738" ry="26.741"/><text text-anchor="middle" x="73.48" y="-389.631" font-family="Times,serif" font-size="14" fill="#fff">identifier</text><text text-anchor="middle" x="73.48" y="-374.631" font-family="Times,serif" font-size="14" fill="#fff">value: self</text></g><g class="edge"><title>arguments--arg1</title><path fill="none" stroke="#000" d="M252.071-461.186c-9.13 4.083-19.248 8.535-28.591 12.485-39.68 16.778-50.216 19.47-90 36a2143.845 2143.845 0 0 0-21.333 9.019"/></g><g class="node"><title>arg2</title><ellipse fill="#bababa" stroke="#000" cx="203.48" cy="-385.831" rx="60.623" ry="26.741"/><text text-anchor="middle" x="203.48" y="-389.631" font-family="Times,serif" font-size="14" fill="#fff">identifier</text><text text-anchor="middle" x="203.48" y="-374.631" font-family="Times,serif" font-size="14" fill="#fff">value: origin</text></g><g class="edge"><title>arguments--arg2</title><path fill="none" stroke="#000" d="M266.809-458.067l-41.648 46.849"/></g><g class="node"><title>arg3</title><ellipse fill="none" stroke="#000" cx="359.48" cy="-385.831" rx="77.187" ry="18"/><text text-anchor="middle" x="359.48" y="-382.131" font-family="Times,serif" font-size="14">keyword argument</text></g><g class="edge"><title>arguments--arg3</title><path fill="none" stroke="#000" d="M296.151-458.067l48.459 54.509"/></g><g class="node"><title>comment</title><ellipse fill="#7f7f7f" stroke="#000" cx="551.48" cy="-385.831" rx="96.333" ry="26.741"/><text text-anchor="middle" x="551.48" y="-389.631" font-family="Times,serif" font-size="14" fill="#fff">comment</text><text text-anchor="middle" x="551.48" y="-374.631" font-family="Times,serif" font-size="14" fill="#fff">value: origin can be...</text></g><g class="edge"><title>body--comment</title><path fill="none" stroke="#000" d="M551.48-457.236v44.453"/></g><g class="node"><title>if</title><ellipse fill="#cb7832" stroke="#000" cx="715.48" cy="-385.831" rx="50.091" ry="18"/><text text-anchor="middle" x="715.48" y="-382.131" font-family="Times,serif" font-size="14" fill="#fff">conditional</text></g><g class="edge"><title>body--if</title><path fill="none" stroke="#000" d="M572.585-463.28l116.166 62.149"/></g><g class="node"><title>expr31</title><ellipse fill="#bababa" stroke="#000" cx="303.48" cy="-296.09" rx="46.839" ry="26.741"/><text text-anchor="middle" x="303.48" y="-299.89" font-family="Times,serif" font-size="14" fill="#fff">identifier</text><text text-anchor="middle" x="303.48" y="-284.89" font-family="Times,serif" font-size="14" fill="#fff">value: k</text></g><g class="edge"><title>arg3--expr31</title><path fill="none" stroke="#000" d="M348.683-367.913a802556.07 802556.07 0 0 0-29.566 46.324"/></g><g class="node"><title>expr32</title><ellipse fill="#6896ba" stroke="#000" cx="415.48" cy="-296.09" rx="47.253" ry="26.741"/><text text-anchor="middle" x="415.48" y="-299.89" font-family="Times,serif" font-size="14" fill="#fff">literal</text><text text-anchor="middle" x="415.48" y="-284.89" font-family="Times,serif" font-size="14" fill="#fff">value: 10</text></g><g class="edge"><title>arg3--expr32</title><path fill="none" stroke="#000" d="M370.278-367.913l29.566 46.324"/></g><g class="node"><title>condition</title><ellipse fill="none" stroke="#000" cx="602.48" cy="-296.09" rx="44.393" ry="18"/><text text-anchor="middle" x="602.48" y="-292.39" font-family="Times,serif" font-size="14">condition</text></g><g class="edge"><title>if--condition</title><path fill="none" stroke="#000" d="M695.278-369.144a9540621.89 9540621.89 0 0 1-73.149 56.797"/></g><g class="node"><title>true_branch</title><ellipse fill="none" stroke="#000" cx="715.48" cy="-296.09" rx="50.892" ry="18"/><text text-anchor="middle" x="715.48" y="-292.39" font-family="Times,serif" font-size="14">true branch</text></g><g class="edge"><title>if--true_branch</title><path fill="none" stroke="#000" d="M715.48-367.496v53.406"/></g><g class="node"><title>false_branch</title><ellipse fill="none" stroke="#000" cx="838.48" cy="-296.09" rx="53.891" ry="18"/><text text-anchor="middle" x="838.48" y="-292.39" font-family="Times,serif" font-size="14">false branch</text></g><g class="edge"><title>if--false_branch</title><path fill="none" stroke="#000" d="M736.905-369.547l79.568 56.758"/></g><g class="node"><title>isinstance</title><ellipse fill="#cb7832" stroke="#000" cx="602.48" cy="-206.35" rx="75.821" ry="26.741"/><text text-anchor="middle" x="602.48" y="-210.15" font-family="Times,serif" font-size="14" fill="#fff">builtin</text><text text-anchor="middle" x="602.48" y="-195.15" font-family="Times,serif" font-size="14" fill="#fff">value: isinstance</text></g><g class="edge"><title>condition--isinstance</title><path fill="none" stroke="#000" d="M602.48-277.756v44.454"/></g><g class="node"><title>ii1</title><ellipse fill="#bababa" stroke="#000" cx="535.48" cy="-116.61" rx="60.623" ry="26.741"/><text text-anchor="middle" x="535.48" y="-120.41" font-family="Times,serif" font-size="14" fill="#fff">identifier</text><text text-anchor="middle" x="535.48" y="-105.41" font-family="Times,serif" font-size="14" fill="#fff">value: origin</text></g><g class="edge"><title>isinstance--ii1</title><path fill="none" stroke="#000" d="M583.101-179.972l-28.747 37.646"/></g><g class="node"><title>ii2</title><ellipse fill="#cb7832" stroke="#000" cx="670.48" cy="-116.61" rx="56.637" ry="26.741"/><text text-anchor="middle" x="670.48" y="-120.41" font-family="Times,serif" font-size="14" fill="#fff">builtin</text><text text-anchor="middle" x="670.48" y="-105.41" font-family="Times,serif" font-size="14" fill="#fff">value: tuple</text></g><g class="edge"><title>isinstance--ii2</title><path fill="none" stroke="#000" d="M622.149-179.972l29.409 37.947"/></g><g class="node"><title>ii21</title><ellipse fill="#cb7832" stroke="#000" cx="608.48" cy="-26.87" rx="56.637" ry="26.741"/><text text-anchor="middle" x="608.48" y="-30.67" font-family="Times,serif" font-size="14" fill="#fff">builtin</text><text text-anchor="middle" x="608.48" y="-15.67" font-family="Times,serif" font-size="14" fill="#fff">value: tuple</text></g><g class="edge"><title>ii2--ii21</title><path fill="none" stroke="#000" d="M652.879-90.702l-26.968 38.165"/></g><g class="node"><title>ii22</title><ellipse fill="#cb7832" stroke="#000" cx="732.48" cy="-26.87" rx="49.495" ry="26.741"/><text text-anchor="middle" x="732.48" y="-30.67" font-family="Times,serif" font-size="14" fill="#fff">builtin</text><text text-anchor="middle" x="732.48" y="-15.67" font-family="Times,serif" font-size="14" fill="#fff">value: list</text></g><g class="edge"><title>ii2--ii22</title><path fill="none" stroke="#000" d="M688.081-90.702l27.183 38.468"/></g></g></svg>

<?xml version="1.0" encoding="UTF-8" standalone="no"?>
<!DOCTYPE svg PUBLIC "-//W3C//DTD SVG 1.1//EN"
 "http://www.w3.org/Graphics/SVG/1.1/DTD/svg11.dtd">
<!-- Generated by graphviz version 2.38.0 (20140413.2041)
 -->
<!-- Title: AST Pages: 1 -->
<svg width="900pt" height="582pt"
 viewBox="0.00 0.00 900.43 582.44" xmlns="http://www.w3.org/2000/svg" xmlns:xlink="http://www.w3.org/1999/xlink">
<g id="graph0" class="graph" transform="scale(1 1) rotate(0) translate(4 578.441)">
<title>AST</title>
<!-- def -->
<g id="node1" class="node"><title>def</title>
<ellipse fill="#cb7832" stroke="black" cx="281.48" cy="-556.441" rx="76.8869" ry="18"/>
<text text-anchor="middle" x="281.48" y="-552.741" font-family="Times,serif" font-size="14.00" fill="white">function definition</text>
</g>
<!-- function_name -->
<g id="node2" class="node"><title>function_name</title>
<ellipse fill="#bababa" stroke="black" cx="107.48" cy="-475.571" rx="107.46" ry="26.7407"/>
<text text-anchor="middle" x="107.48" y="-479.371" font-family="Times,serif" font-size="14.00" fill="white">identifier</text>
<text text-anchor="middle" x="107.48" y="-464.371" font-family="Times,serif" font-size="14.00" fill="white">value: nearest_neighbors</text>
</g>
<!-- def&#45;&#45;function_name -->
<g id="edge1" class="edge"><title>def&#45;&#45;function_name</title>
<path fill="none" stroke="black" d="M247.931,-540.234C222.354,-528.64 186.713,-512.485 157.735,-499.35"/>
</g>
<!-- arguments -->
<g id="node3" class="node"><title>arguments</title>
<ellipse fill="none" stroke="black" cx="281.48" cy="-475.571" rx="48.1917" ry="18"/>
<text text-anchor="middle" x="281.48" y="-471.871" font-family="Times,serif" font-size="14.00">arguments</text>
</g>
<!-- def&#45;&#45;arguments -->
<g id="edge2" class="edge"><title>def&#45;&#45;arguments</title>
<path fill="none" stroke="black" d="M281.48,-538.327C281.48,-525.098 281.48,-506.872 281.48,-493.651"/>
</g>
<!-- body -->
<g id="node4" class="node"><title>body</title>
<ellipse fill="none" stroke="black" cx="551.48" cy="-475.571" rx="28.6953" ry="18"/>
<text text-anchor="middle" x="551.48" y="-471.871" font-family="Times,serif" font-size="14.00">body</text>
</g>
<!-- def&#45;&#45;body -->
<g id="edge3" class="edge"><title>def&#45;&#45;body</title>
<path fill="none" stroke="black" d="M327.588,-541.972C384.822,-525.253 480.429,-497.326 525.922,-484.037"/>
</g>
<!-- arg1 -->
<g id="node5" class="node"><title>arg1</title>
<ellipse fill="#bababa" stroke="black" cx="73.4802" cy="-385.831" rx="51.7379" ry="26.7407"/>
<text text-anchor="middle" x="73.4802" y="-389.631" font-family="Times,serif" font-size="14.00" fill="white">identifier</text>
<text text-anchor="middle" x="73.4802" y="-374.631" font-family="Times,serif" font-size="14.00" fill="white">value: self</text>
</g>
<!-- arguments&#45;&#45;arg1 -->
<g id="edge4" class="edge"><title>arguments&#45;&#45;arg1</title>
<path fill="none" stroke="black" d="M252.071,-461.186C242.941,-457.103 232.823,-452.651 223.48,-448.701 183.8,-431.923 173.264,-429.231 133.48,-412.701 126.566,-409.828 119.23,-406.717 112.147,-403.682"/>
</g>
<!-- arg2 -->
<g id="node6" class="node"><title>arg2</title>
<ellipse fill="#bababa" stroke="black" cx="203.48" cy="-385.831" rx="60.623" ry="26.7407"/>
<text text-anchor="middle" x="203.48" y="-389.631" font-family="Times,serif" font-size="14.00" fill="white">identifier</text>
<text text-anchor="middle" x="203.48" y="-374.631" font-family="Times,serif" font-size="14.00" fill="white">value: origin</text>
</g>
<!-- arguments&#45;&#45;arg2 -->
<g id="edge5" class="edge"><title>arguments&#45;&#45;arg2</title>
<path fill="none" stroke="black" d="M266.809,-458.067C255.07,-444.863 238.436,-426.151 225.161,-411.218"/>
</g>
<!-- arg3 -->
<g id="node7" class="node"><title>arg3</title>
<ellipse fill="none" stroke="black" cx="359.48" cy="-385.831" rx="77.1866" ry="18"/>
<text text-anchor="middle" x="359.48" y="-382.131" font-family="Times,serif" font-size="14.00">keyword argument</text>
</g>
<!-- arguments&#45;&#45;arg3 -->
<g id="edge6" class="edge"><title>arguments&#45;&#45;arg3</title>
<path fill="none" stroke="black" d="M296.151,-458.067C310.008,-442.48 330.688,-419.218 344.61,-403.558"/>
</g>
<!-- comment -->
<g id="node10" class="node"><title>comment</title>
<ellipse fill="#7f7f7f" stroke="black" cx="551.48" cy="-385.831" rx="96.3333" ry="26.7407"/>
<text text-anchor="middle" x="551.48" y="-389.631" font-family="Times,serif" font-size="14.00" fill="white">comment</text>
<text text-anchor="middle" x="551.48" y="-374.631" font-family="Times,serif" font-size="14.00" fill="white">value: origin can be...</text>
</g>
<!-- body&#45;&#45;comment -->
<g id="edge9" class="edge"><title>body&#45;&#45;comment</title>
<path fill="none" stroke="black" d="M551.48,-457.236C551.48,-444.551 551.48,-427.124 551.48,-412.783"/>
</g>
<!-- if -->
<g id="node11" class="node"><title>if</title>
<ellipse fill="#cb7832" stroke="black" cx="715.48" cy="-385.831" rx="50.0912" ry="18"/>
<text text-anchor="middle" x="715.48" y="-382.131" font-family="Times,serif" font-size="14.00" fill="white">conditional</text>
</g>
<!-- body&#45;&#45;if -->
<g id="edge10" class="edge"><title>body&#45;&#45;if</title>
<path fill="none" stroke="black" d="M572.585,-463.28C602.258,-447.404 656.305,-418.49 688.751,-401.131"/>
</g>
<!-- expr31 -->
<g id="node8" class="node"><title>expr31</title>
<ellipse fill="#bababa" stroke="black" cx="303.48" cy="-296.09" rx="46.8387" ry="26.7407"/>
<text text-anchor="middle" x="303.48" y="-299.89" font-family="Times,serif" font-size="14.00" fill="white">identifier</text>
<text text-anchor="middle" x="303.48" y="-284.89" font-family="Times,serif" font-size="14.00" fill="white">value: k</text>
</g>
<!-- arg3&#45;&#45;expr31 -->
<g id="edge7" class="edge"><title>arg3&#45;&#45;expr31</title>
<path fill="none" stroke="black" d="M348.683,-367.913C340.292,-354.767 328.536,-336.348 319.117,-321.589"/>
</g>
<!-- expr32 -->
<g id="node9" class="node"><title>expr32</title>
<ellipse fill="#6896ba" stroke="black" cx="415.48" cy="-296.09" rx="47.2526" ry="26.7407"/>
<text text-anchor="middle" x="415.48" y="-299.89" font-family="Times,serif" font-size="14.00" fill="white">literal</text>
<text text-anchor="middle" x="415.48" y="-284.89" font-family="Times,serif" font-size="14.00" fill="white">value: 10</text>
</g>
<!-- arg3&#45;&#45;expr32 -->
<g id="edge8" class="edge"><title>arg3&#45;&#45;expr32</title>
<path fill="none" stroke="black" d="M370.278,-367.913C378.668,-354.767 390.424,-336.348 399.844,-321.589"/>
</g>
<!-- condition -->
<g id="node12" class="node"><title>condition</title>
<ellipse fill="none" stroke="black" cx="602.48" cy="-296.09" rx="44.393" ry="18"/>
<text text-anchor="middle" x="602.48" y="-292.39" font-family="Times,serif" font-size="14.00">condition</text>
</g>
<!-- if&#45;&#45;condition -->
<g id="edge11" class="edge"><title>if&#45;&#45;condition</title>
<path fill="none" stroke="black" d="M695.278,-369.144C674.583,-353.075 642.621,-328.258 622.129,-312.347"/>
</g>
<!-- true_branch -->
<g id="node13" class="node"><title>true_branch</title>
<ellipse fill="none" stroke="black" cx="715.48" cy="-296.09" rx="50.8918" ry="18"/>
<text text-anchor="middle" x="715.48" y="-292.39" font-family="Times,serif" font-size="14.00">true branch</text>
</g>
<!-- if&#45;&#45;true_branch -->
<g id="edge12" class="edge"><title>if&#45;&#45;true_branch</title>
<path fill="none" stroke="black" d="M715.48,-367.496C715.48,-352.014 715.48,-329.47 715.48,-314.09"/>
</g>
<!-- false_branch -->
<g id="node14" class="node"><title>false_branch</title>
<ellipse fill="none" stroke="black" cx="838.48" cy="-296.09" rx="53.8905" ry="18"/>
<text text-anchor="middle" x="838.48" y="-292.39" font-family="Times,serif" font-size="14.00">false branch</text>
</g>
<!-- if&#45;&#45;false_branch -->
<g id="edge13" class="edge"><title>if&#45;&#45;false_branch</title>
<path fill="none" stroke="black" d="M736.905,-369.547C759.206,-353.64 793.958,-328.85 816.473,-312.789"/>
</g>
<!-- isinstance -->
<g id="node15" class="node"><title>isinstance</title>
<ellipse fill="#cb7832" stroke="black" cx="602.48" cy="-206.35" rx="75.8212" ry="26.7407"/>
<text text-anchor="middle" x="602.48" y="-210.15" font-family="Times,serif" font-size="14.00" fill="white">builtin</text>
<text text-anchor="middle" x="602.48" y="-195.15" font-family="Times,serif" font-size="14.00" fill="white">value: isinstance</text>
</g>
<!-- condition&#45;&#45;isinstance -->
<g id="edge14" class="edge"><title>condition&#45;&#45;isinstance</title>
<path fill="none" stroke="black" d="M602.48,-277.756C602.48,-265.071 602.48,-247.644 602.48,-233.302"/>
</g>
<!-- ii1 -->
<g id="node16" class="node"><title>ii1</title>
<ellipse fill="#bababa" stroke="black" cx="535.48" cy="-116.61" rx="60.623" ry="26.7407"/>
<text text-anchor="middle" x="535.48" y="-120.41" font-family="Times,serif" font-size="14.00" fill="white">identifier</text>
<text text-anchor="middle" x="535.48" y="-105.41" font-family="Times,serif" font-size="14.00" fill="white">value: origin</text>
</g>
<!-- isinstance&#45;&#45;ii1 -->
<g id="edge15" class="edge"><title>isinstance&#45;&#45;ii1</title>
<path fill="none" stroke="black" d="M583.101,-179.972C574.057,-168.129 563.333,-154.085 554.354,-142.326"/>
</g>
<!-- ii2 -->
<g id="node17" class="node"><title>ii2</title>
<ellipse fill="#cb7832" stroke="black" cx="670.48" cy="-116.61" rx="56.6372" ry="26.7407"/>
<text text-anchor="middle" x="670.48" y="-120.41" font-family="Times,serif" font-size="14.00" fill="white">builtin</text>
<text text-anchor="middle" x="670.48" y="-105.41" font-family="Times,serif" font-size="14.00" fill="white">value: tuple</text>
</g>
<!-- isinstance&#45;&#45;ii2 -->
<g id="edge16" class="edge"><title>isinstance&#45;&#45;ii2</title>
<path fill="none" stroke="black" d="M622.149,-179.972C631.406,-168.028 642.398,-153.845 651.558,-142.025"/>
</g>
<!-- ii21 -->
<g id="node18" class="node"><title>ii21</title>
<ellipse fill="#cb7832" stroke="black" cx="608.48" cy="-26.8701" rx="56.6372" ry="26.7407"/>
<text text-anchor="middle" x="608.48" y="-30.6701" font-family="Times,serif" font-size="14.00" fill="white">builtin</text>
<text text-anchor="middle" x="608.48" y="-15.6701" font-family="Times,serif" font-size="14.00" fill="white">value: tuple</text>
</g>
<!-- ii2&#45;&#45;ii21 -->
<g id="edge17" class="edge"><title>ii2&#45;&#45;ii21</title>
<path fill="none" stroke="black" d="M652.879,-90.7021C644.43,-78.7454 634.337,-64.4618 625.911,-52.5368"/>
</g>
<!-- ii22 -->
<g id="node19" class="node"><title>ii22</title>
<ellipse fill="#cb7832" stroke="black" cx="732.48" cy="-26.8701" rx="49.4949" ry="26.7407"/>
<text text-anchor="middle" x="732.48" y="-30.6701" font-family="Times,serif" font-size="14.00" fill="white">builtin</text>
<text text-anchor="middle" x="732.48" y="-15.6701" font-family="Times,serif" font-size="14.00" fill="white">value: list</text>
</g>
<!-- ii2&#45;&#45;ii22 -->
<g id="edge18" class="edge"><title>ii2&#45;&#45;ii22</title>
<path fill="none" stroke="black" d="M688.081,-90.7021C696.602,-78.6441 706.794,-64.2196 715.264,-52.2341"/>
</g>
</g>
</svg>
